X: 424
T: Booth Shot Lincoln
B: jims roots
M:C|
L:1/8
Q: 1/4=100
K:A
V:1 
(3AGF | "A"ECEF E3E | "D"FA2B A3A- | "A"ABcA AcBA | "F#m"[A,3F3]{E}[A,3F3]AF |
"A"ECEF E3E | "D"FA2B A3(f | "A"e2)cA "E"BcAF | "A"A4A2 :|
AB | "A"ce2f e3e | "D"fa2b a3(f | "A"e2)cB AcBA | "F#m"[F3A3][F3A3][EA]B |
"A"e2f e3e | "D"fa2b a3(f | "A"e2)cB "E"AcBG | "A"(A[A2A2])(A [A2A2])AB ||
"A"ce2f e3e | "D"fa2b a3(f | "A"e2)cB AcBA | "F#m"[F3A3][F3A3]AF |
"A"ECEF E3E | "D"FA2B A3(f | "A"e2)cA "E"BcAF | "A"A4A2 ||
% abcbook-tune_id 6298c245507e9be2b5d724bf


% abcbook-boost 0
% abcbook-tablature 
% abcbook-transpose 
% abcbook-lastupdated 1654178373470
% abcbook-soundfonts 
% abcbook-repeats 1


